X:1
T:Ellesdie, 87.87 D
T:Ellesdie, 87.87 D
T:Wolfgang Mozart, arr. Hubert Platt Main, 1872
T:Public Domain Courtesy of the Cyber Hymnal™
C:Wolfgang Mozart, arr. Hubert Platt Main, 1872
Z:Public Domain
Z:Courtesy of the Cyber Hymnal™
%%score ( 1 2 ) ( 3 4 )
L:1/8
Q:1/4=115
M:4/4
K:Ab
V:1 treble 
V:2 treble 
V:3 bass 
V:4 bass 
V:1
 [CA]3 [DA] [CA]2 [EA]2 | [Ec]3 [EB] (BA) [EA]2 | [EB]3 [EB] [EB]2 [EB]2 | [Ed]3 [Ec] (c2 B2) | %4
 [CA]3 [DA] [CA]2 [EA]2 | [Ec]3 [EB] (BA) [EA]2 | [EB]2 [=DB]2 (B_d) ([Ec][FB]) | %7
 [EA]2 [DG]2 [CA]4 | [EB]3 [EB] [DB]2 [DB]2 | [CB]3 [CA] (AG) [DG]2 | [Cc]3 [Ec] [Ec]2 [Ec]2 | %11
 [Ed]3 [Ec] (c2 B2) | [CA]3 [DA] [CA]2 [EA]2 | [Ec]3 [EB] (BA) [EA]2 | %14
 [EB]2 [=DB]2 (B_d) ([Ec][FB]) | [EA]2 [DG]2 [CA]4 |] %16
V:2
 x8 | x4 E2 x2 | x8 | x4 E4 | x8 | x4 E2 x2 | x8 | x8 | x8 | x4 D2 x2 | x8 | x4 E4 | x8 | %13
 x4 E2 x2 | x4 E2 x2 | x8 |] %16
V:3
 [A,,E,]3 [A,,F,] [A,,E,]2 [C,A,]2 | [E,A,]3 [E,D] (DC) [A,,C]2 | [E,G,]3 [E,G,] [E,G,]2 [E,G,]2 | %3
 [G,B,]3 A, (A,2 G,2) | [A,,A,]3 [A,,F,] [A,,E,]2 [C,A,]2 | [E,A,]3 [E,D] (DC) [A,,C]2 | %6
 [E,G,]2 [F,A,]2 [G,B,]2 (A,[D,D]) | [E,C]2 [E,B,]2 [A,,A,]4 | [E,G,]3 [E,G,] [E,G,]2 [E,G,]2 | %9
 [E,A,]3 [E,A,] [E,B,]2 [E,B,]2 | A,3 A, A,2 A,2 | [G,B,]3 A, (A,2 G,2) | %12
 [A,,A,]3 [A,,F,] [A,,E,]2 [C,A,]2 | [E,A,]3 [E,D] (DC) [A,,C]2 | %14
 [E,G,]2 [F,A,]2 [G,B,]2 (A,[D,D]) | [E,C]2 [E,B,]2 [A,,A,]4 |] %16
V:4
 x8 | x4 A,,2 x2 | x8 | x3 A, E,4 | x8 | x4 A,,2 x2 | x8 | x8 | x8 | x8 | A,3 A, A,2 A,2 | %11
 x3 A, E,4 | x8 | x4 A,,2 x2 | x8 | x8 |] %16

